X:1
T:Jean-Franois de Nantes
C:Traditionnel, abc file by Bernard Loffet
L:1/8
Q:344
M:3/4
K:C
z4[G2C,2]|[G2C,2]C,2[^F2G,2]|[G2C,2]C,2[A2G,2]|[G2C,2]C,2C,2|[E2C,2]C,2C,2|[G2C,2]C,2C,2|[A2F,2]F,2F,2|[F2G,2]G,2G,2|G,2G,2[F2G,2]|[F2F,2]F,2[E2F,2]| \
[F2F,2]F,2[G2F,2]|[F2G,2][E2C,2][F2G,2]|[D2G,2]G,2G,2|[G2C,2]C,2C,2|[G2C,2]C,2C,2|[E2C,2]C,2C,2|C,2C,4| \
Z:Created with TablEdit http://www.tabledit.com/ by Bernard Loffet
